X:37
%%etbk:tnset id:13,pos:2,rep:3x,ant:
%%etbk:wsite http://www.thesession.org/tunes/display/77
%%etbk:pldat 2016-09-07T15:23,2016-07-26T15:16,2016-07-15T15:02,2016-07-12T16:09,2015-08-18T17:35,2015-05-27T18:21,2015-04-20T18:20,2015-04-15T17:16,2015-03-24T15:38,2015-03-06T17:15,2015-03-04T17:18,2015-02-22T16:40,2015-02-17T17:30,2015-02-14T15:04,2015-02-12T19:41,2015-02-10T18:04,2015-02-04T17:02,2015-02-03T17:23,2015-01-24T14:23,2015-01-21T18:00,2015-01-20T17:07,2014-12-11T18:22,2014-09-13T14:18,2014-05-01T19:10,2014-04-28T18:44,2014-04-27T13:27,2014-04-01T17:32,2014-03-18T17:23,2014-02-10T18:01,2013-11-26T16:42,2013-11-23T15:20,2013-11-04T18:03,2013-08-27T18:20,2013-05-22T16:57
T: My Love Is In America
Z: Piano Box Version by Martin Fleischmann
H: Created 2013-02-19 /  Last Modified 2013-02-19
M: 4/4
L: 1/8
R: reel
K: Dmaj
|:!2!F3!1!G !2!AB!4!=c!3!B | !1!A!3!ddc Add!1!A |!2! FFF!1!G !2!AB=c!2!A | !1!GBA!1!G !2!F!1!DD2 |
!2!FFF!1!G !2!AB=c!3!B | !1!A!3!dd!2!c !1!defg | !5!af!4!ge !1!d2!5!e!4!d | !3!c!1!A!3!G!1!E !2!F!1!D D2:|
|:!1!fde!4!g !3!f!1!d!5!e!3!c | !1!A!3!ddd !1!A!3!d!1!d!4!g | !3!fdeg !3!f!1!d!5!e!3!c | !1!G!3!BA!1!G !2!F!1!DD2 |
!3!fdeg !3!fd!5!ec | !1!A!3!dd!2!c !1!defg | !5!af!4!ge !1!d2!5!e!4!d | !3!c!1!A!3!G!1!E !2!F!1!D D2:|


